X:1
T:Cest grand pitié
T:Pierre Certon
T:Source : Second livre contenant 25 chansons nouvelles à 4 parties---Paris---P.Attaignant---1536. Editor : André Vierendeels (15/12/17). Notes : Original clefs :  G2, C3, C3, F3 Original note values have been halved Editorial accidentals above the staff Dotted bracket indicates black notes
T:Cest grand pitié
T:©
T:©
C:Pierre Certon
Z:©
%%score [ 1 2 3 4 ]
L:1/8
Q:1/4=120
M:6/4
K:F
V:1 treble nm="Soprano" snm="S"
V:2 treble nm="Alto" snm="A"
V:3 treble-8 nm="Tenor" snm="T"
V:4 bass nm="Bass" snm="B"
V:1
 z2 z2 A2 G4 F2 | F4 B2 B4 A2 | B4 B2 B4 B2 | A4 G2 G2 F4 | G4 d2 d4 e2 | f4 e2 d4 c2 | %6
w: Cest grand pi-|tié quant ar- gent|fault, à bon com-|pai- gnon sur les|champs, sou- vent par|cueur dis- ner luy|
 d4 A2 G4 F2 | F4 f2 f4 e2 | d4 c2 B4 A2 | B4 A2 G4 F2 | F4 F2 A4 B2 | c4 d2 d4 c2 | d4 A2 G4 F2 | %13
w: fault, cest grand pi-|tié, a- lors tout|plai- sir luy dé-|fault, cest grand pi-|tié, de re- qui|em sont tous ces|champs, cest grand pi-|
 F4 B2 B4 A2 | B4 B2 B4 B2 |"^#" A4 G2 G2 F4 | G4 B2 B4 B2 | A4 G2 G2 F4 | G4 A2 G4 F2 | F12 |] %20
w: tié, quant ar- gent|fault, à bon com-|pai- gnon sur les|champs, à bon com-|pai- gnon sur les|champs, cest grand pi-|tié.|
V:2
 z2 z2 F2 _E4 D2 | D4 F2 F2 F4 | D4 F2 F4 F2 | F4 D2 E2 D4 | B,4 G2 F4 G2 | A4 G2 F3 E/D/ E2 | %6
w: Cest grand pi-|tié quant ar- gent|fault, à bon com-|pai- gnon sur les|champs, sou- vent par|cueur dis- ner _ _ luy|
 D4 F2 _E4 D2 | D4 F2 F4 G2 | D3 E F2 G4 F2 | G4 F2 _E4 D2 | D4 F2 F4 G2 | E4 D2 G2 E4 | %12
w: fault, cest grand pi-|tié, a- lors tout|plai- * sir luy dé-|fault, cest grand pi-|tié, de re- qui-|em sont tous ces|
 D4 F2 _E4 D2 | D4 F2 F2 F4 | D4 F2 F4 F2 | F4 D2 E2 D4 | B,4 F2 F4 F2 | F4 D2 E2 D4 | %18
w: champs, cest grand pi-|tié, quant ar- gent|fault, à bon com-|pai- gnon sur les|champs, à bon com-|pai- gnon sur les|
 B,4 F2 _E4 D2 | D12 |] %20
w: champs, cest grand pi-|tié.|
V:3
 z2 z2 d2 B4 B2 | B4 d2 c2 c4 | B4 d2 d4 d2 | c4 B2 c2 A4 | G4 B2 B4 G2 | F4 G2 B2 A4 | %6
w: Cest grand pi-|tié quant ar- gent|fault, à bon com-|pai- gnon sur les|champs, sou- vent par|cueur dis- ner luy|
 B4 d2 B4 B2 | B4 d2 d4 c2 | B4 A2 G2 d4 | G4 d2 B4 B2 | B4 d2 d4 G2 | A4 B2 G2 A4 | B4 d2 B4 B2 | %13
w: fault, cest grand pi-|tié, a- lors tout|plai- sir luy dé-|fault, cest grand pi-|tié, de re- qui-|em sont tous ces|champs, cest grand pi-|
 B4 d2 c2 c4 | B4 d2 d4 d2 | c4 B2 c2 A4 | G4 d2 d4 d2 | c4 B2 c2 A4 | G4 d2 B4 B2 | B12 |] %20
w: tié, quant ar- gent|fault, à bon com-|pai- gnon sur les|champs, à bon com-|pai- gnon sur les|champs, cest grand pi-|tié.|
V:4
 z2 z2 D,2 _E,4 B,,2 | B,,4 B,,2 F,2 F,4 | B,,4 B,,2 B,,4 B,,2 | F,4 G,2 C,2 D,4 | G,4 z2 z6 | %5
w: Cest grand pi-|tié quant ar- gent|fault, à bon com-|pai- gnon sur les|champs,|
 z4 z4 z4 | z2 z2 D,2 _E,4 B,,2 | B,,4 z4 z4 | z4 z4 z4 | z2 z2 D,2 _E,4 B,,2 | B,,4 z4 z4 | %11
w: |cest grand pi-|tié,||cest grand pi-|tié,|
 z8 z4 | z2 z2 D,2 _E,4 B,,2 | B,,4 B,,2 F,2 F,4 |"^#" B,,4 B,,2 B,,4 B,,2 | F,4 G,2 C,2 D,4 | %16
w: |cest grand pi-|tié, quant ar- gant|fault, à bon com-|pai- gnon sur les|
 G,4 B,,2 B,,4 B,,2 | F,4 G,2 C,2 D,4 | G,4 D,2 _E,4 B,,2 | B,,12 |] %20
w: champs, à bon com-|pai- gnon sur les|champs, cest grand pi-|tié.|

